neru-dark-classic/22x22/status/semi-starred-symbolic-rtl.svg

<svg xmlns="http://www.w3.org/2000/svg" width="22" height="22"><path class="warning" d="M11 3.39l2.13 5.5L19 9.2l-4.56 3.72 1.5 5.68L11 15.42v-.01l-4.94 3.21 1.51-5.7L3 9.21l5.88-.32L11 3.4v-.02zm0 2.79L9.58 9.86l-3.94.21 3.07 2.49-1.02 3.81L11 14.22z" fill="#3fb7ff"/></svg>

<?xml version="1.0" encoding="UTF-8" standalone="no"?>
<svg
   xmlns:dc="http://purl.org/dc/elements/1.1/"
   xmlns:cc="http://creativecommons.org/ns#"
   xmlns:rdf="http://www.w3.org/1999/02/22-rdf-syntax-ns#"
   xmlns:svg="http://www.w3.org/2000/svg"
   xmlns="http://www.w3.org/2000/svg"
   xmlns:sodipodi="http://sodipodi.sourceforge.net/DTD/sodipodi-0.dtd"
   xmlns:inkscape="http://www.inkscape.org/namespaces/inkscape"
   width="22"
   height="22"
   version="1.1"
   id="svg4"
   sodipodi:docname="semi-starred-symbolic-rtl.svg"
   inkscape:version="0.92.1 r">
  <metadata
     id="metadata10">
    <rdf:RDF>
      <cc:Work
         rdf:about="">
        <dc:format>image/svg+xml</dc:format>
        <dc:type
           rdf:resource="http://purl.org/dc/dcmitype/StillImage" />
      </cc:Work>
    </rdf:RDF>
  </metadata>
  <defs
     id="defs8" />
  <sodipodi:namedview
     pagecolor="#ffffff"
     bordercolor="#666666"
     borderopacity="1"
     objecttolerance="10"
     gridtolerance="10"
     guidetolerance="10"
     inkscape:pageopacity="0"
     inkscape:pageshadow="2"
     inkscape:window-width="769"
     inkscape:window-height="480"
     id="namedview6"
     showgrid="false"
     inkscape:zoom="10.727273"
     inkscape:cx="11"
     inkscape:cy="11"
     inkscape:window-x="0"
     inkscape:window-y="0"
     inkscape:window-maximized="0"
     inkscape:current-layer="svg4" />
  <path
     style="fill:#3fb7ff"
     class="warning"
     d="M 11,3.39 13.13,8.89 19,9.2 14.44,12.92 15.94,18.6 11,15.42 V 15.41 L 6.06,18.62 7.57,12.92 3,9.21 8.88,8.89 11,3.4 V 3.38 Z M 11,6.18 9.58,9.86 5.64,10.07 8.71,12.56 7.69,16.37 11,14.22 Z"
     id="path2"
     inkscape:connector-curvature="0" />
</svg>
